X:162
T:Hargaluten (clarinet)
M:3/4
L:1/8
K:AMin
"Am"e2 ef ed|dc cB Ac|"E"cB BE "snap"^GB|"Am"A^G AB cd|
"Am"e2 ef ed|dc cB Ac|"E"cB BE "snap"^GB|"Am"A2 A2 z2:|
"C" cd e2 c2|"Dm"de f2 d2|"G"g2 ga gf|"C"fe e6|
"C" cd e2 c2|"Dm"de f2 d2|"G"g2 ga gf|"C"fe e6|
"E7"e2 ef ed|"Am"dc cB Ac|"E"cB BE "snap"^GB|"Am"A^G AB cd|
"E7"e2 ef ed|"Am"dc cB Ac|"E"cB BE "snap"^GB|"Am"A2 A2 z2:|
"Am"A2 ^G2 A2|"E"B2A2B2|"Am"cd cB cd|"E"ef ed cB|
"Am"A2 ^G2 A2|"E"B2A2B2|"Am"cd cB cd|"E"e2 f2 "D7"^f2|
"G"gf d2 (3def)|
"C"ed c2 e2|"Dm"dc B2 "E"(3Bcd)|"Am"cB A4|"Dm"af d2 (3def)|
"Am"ec A2 c2|"E"cB BE "snap"^GB|"Am"A2 A2 z2:|
